Suru++-Ubuntu/apps/symbolic/fofix-symbolic.svg

<svg width="16" height="16" version="1.1" xmlns="http://www.w3.org/2000/svg">
 <defs>
  <clipPath id="clipPath18">
   <path d="m0 900h900v-900h-900z"/>
  </clipPath>
 </defs>
 <g transform="matrix(.02298555 -.02434763 -.02434763 -.02298555 8.0245763 23.286818)" clip-path="url(#clipPath18)">
  <g transform="translate(340.3711,158.3848)">
   <path transform="matrix(17.520164,-18.558382,-18.558382,-17.520164,298.80851,62.676784)" d="m-12.125-2.5078125c0.04663 2.2516603 0.07948 3.8913964 0.113281 5.5078125l-0.01367-0.015625s-1.162737 1.1964997-1.800781 0.1777344c-0.638071-1.0187369-0.56173-1.5074861-0.638672-1.8320313-0.07694-0.3245451-0.339314-0.80467436-0.792968-0.1152343-0.453627 0.6894669-0.903321 1.4921847 0.02148 3.8554687 0.924778 2.3633125 0.284013 3.6218841-0.138672 4.6035156-0.422655 0.9817139-1.521422 2.7931519-0.134766 3.9707029 1.386686 1.177579 3.626361 1.405723 4.595704 1.400391 0.9692865-0.0053 3.9355156-0.222388 4.6132808-1.484375 0.5350203-0.996173 0.6580763-1.778047 0.048828-3.361328-0.6092446-1.5832256-1.3483789-2.2387614-0.9765604-3.4218752 0.3717631-1.1831124 0.7816299-2.4678437 0.6816406-2.9277344-0.1558615-0.7168577-0.7007601-1.602762-1.1621094-1.1835938-0.4614348 0.4190876-0.166857 1.9877579-1.203125 2.0175782-0.4651261 0.0134124-0.91713-0.2858509-1.2734376-0.6210938l-0.279297-6.5703125z" style="fill:#808080"/>
  </g>
 </g>
</svg>

<svg xmlns="http://www.w3.org/2000/svg" width="16" height="16" version="1.1">
 <defs>
  <clipPath id="clipPath18" clipPathUnits="userSpaceOnUse">
   <path d="M 0,900 H 900 V 0 H 0 Z"/>
  </clipPath>
 </defs>
 <g clip-path="url(#clipPath18)" transform="matrix(0.02298555,-0.02434763,-0.02434763,-0.02298555,8.0245763,23.286818)">
  <g transform="translate(340.3711,158.3848)">
   <path style="fill:#808080" d="M -12.125,-2.5078125 C -12.07837,-0.25615216 -12.04552,1.3835839 -12.011719,3 l -0.01367,-0.015625 c 0,0 -1.162737,1.1964997 -1.800781,0.1777344 -0.638071,-1.0187369 -0.56173,-1.5074861 -0.638672,-1.8320313 -0.07694,-0.3245451 -0.339314,-0.80467436 -0.792968,-0.1152343 -0.453627,0.6894669 -0.903321,1.4921847 0.02148,3.8554687 0.924778,2.3633125 0.284013,3.6218841 -0.138672,4.6035156 -0.422655,0.9817139 -1.521422,2.7931519 -0.134766,3.9707029 1.386686,1.177579 3.626361,1.405723 4.595704,1.400391 0.9692865,-0.0053 3.9355156,-0.222388 4.6132808,-1.484375 0.5350203,-0.996173 0.6580763,-1.778047 0.048828,-3.361328 C -6.8611998,8.6159934 -7.6003341,7.9604576 -7.2285156,6.7773438 -6.8567525,5.5942314 -6.4468857,4.3095001 -6.546875,3.8496094 -6.7027365,3.1327517 -7.2476351,2.2468474 -7.7089844,2.6660156 -8.1704192,3.0851032 -7.8758414,4.6537735 -8.9121094,4.6835938 -9.3772355,4.6970062 -9.8292394,4.3977429 -10.185547,4.0625 l -0.279297,-6.5703125 z" transform="matrix(17.520164,-18.558382,-18.558382,-17.520164,298.80851,62.676784)"/>
  </g>
 </g>
</svg>
